Dominus_Dark_Funeral/scalable/apps/bluegriffon.svg

<?xml version="1.0" encoding="UTF-8" standalone="no"?><svg xmlns:dc="http://purl.org/dc/elements/1.1/" xmlns:cc="http://creativecommons.org/ns#" xmlns:rdf="http://www.w3.org/1999/02/22-rdf-syntax-ns#" xmlns="http://www.w3.org/2000/svg" xmlns:xlink="http://www.w3.org/1999/xlink" width="48" height="48" viewBox="0 0 12.7 12.7"><metadata><rdf:RDF><cc:Work><dc:format>image/svg+xml</dc:format><dc:type rdf:resource="http://purl.org/dc/dcmitype/StillImage"/><dc:title/></cc:Work></rdf:RDF></metadata><defs><linearGradient id="f"><stop offset="0" stop-color="#fff"/><stop offset="1" stop-color="#2c89a0"/></linearGradient><linearGradient id="e"><stop offset="0" stop-color="#00112b"/><stop offset="1" stop-color="#214478"/></linearGradient><linearGradient id="b"><stop offset="0" stop-color="#020000"/><stop offset="1" stop-color="#6f918a" stop-opacity="0"/></linearGradient><linearGradient id="a"><stop offset="0" stop-color="#162d50"/><stop offset="1" stop-color="#2c5aa0"/></linearGradient><linearGradient id="c"><stop offset="0" stop-color="#fff" stop-opacity=".18"/><stop offset="1" stop-opacity="0"/></linearGradient><linearGradient id="d"><stop offset="0"/><stop offset="1" stop-opacity="0"/></linearGradient><linearGradient xlink:href="#e" id="h" x1="3.67" y1="5.29" x2="10.58" y2="5.29" gradientUnits="userSpaceOnUse"/><linearGradient xlink:href="#e" id="i" x1="2.96" y1="4.19" x2="6.52" y2="4.19" gradientUnits="userSpaceOnUse"/><radialGradient xlink:href="#f" id="g" gradientUnits="userSpaceOnUse" gradientTransform="matrix(1.5571 .0042 -.00425 1.57695 -3.5 -3.69)" cx="6.34" cy="6.35" fx="6.34" fy="6.35" r="5.35"/></defs><path d="M6.35.1C4.81.1 3.57.38 2.66.96A3.67 3.67 0 0 0 1 4.22c0 1.91 1.54 4.47 2.01 5.2.54.85 1.13 1.61 1.65 2.16.68.7 1.21 1.03 1.69 1.03s1.01-.33 1.69-1.03a15.2 15.2 0 0 0 1.65-2.15c.47-.74 2-3.3 2-5.21 0-1.42-.57-2.54-1.65-3.25A6.75 6.75 0 0 0 6.35.1z" fill="url(#g)"/><path d="M6.35.2L1.49 6.36l4.86 6.17 4.86-6.17zm0 1.55l3.63 4.61-3.63 4.61-3.63-4.6z" fill="#0a8"/><path d="M6.35.1C4.81.1 3.57.38 2.66.96A3.67 3.67 0 0 0 1 4.22c0 1.91 1.54 4.47 2.01 5.2.54.85 1.13 1.61 1.65 2.16.68.7 1.21 1.03 1.69 1.03s1.01-.33 1.69-1.03a15.2 15.2 0 0 0 1.65-2.15c.47-.74 2-3.3 2-5.21 0-1.42-.57-2.54-1.65-3.25A6.75 6.75 0 0 0 6.35.1zm0 .03C6.91.15 7.44.2 7.9.31a5.82 5.82 0 0 1 1.6.66 3.65 3.65 0 0 1 1.24 1.36c.14.27.25.57.32.88a4.61 4.61 0 0 1-.14 2.53c-.15.52-.36 1.04-.58 1.52-.44.97-.95 1.8-1.18 2.17a15.2 15.2 0 0 1-1.65 2.15 4.9 4.9 0 0 1-.92.78.96.96 0 0 1-.24.1.96.96 0 0 1-.24-.1 4.76 4.76 0 0 1-.92-.78 14.41 14.41 0 0 1-1.65-2.15 19.2 19.2 0 0 1-1.18-2.17c-.22-.48-.43-1-.58-1.52a4.6 4.6 0 0 1-.14-2.52 3.73 3.73 0 0 1 .84-1.64 3.65 3.65 0 0 1 1.45-1A6.83 6.83 0 0 1 6.35.13z" opacity=".2"/><path d="M5 9.82c-.88.1-1.32-.55-1.33-1.5-.01-.75.72-3.12 2.28-3.06l.62.02.11-1.13-.48-1.78c.57-.22.84.4 1.04.65L7.3 3l-.2-.59c.86-.33.65.7.79 1.33.1-.46.33-1.33-.13-2.17-.17-.3-.25-.57-.08-.75.25-.28.55.04.7.22.66.7.35 1.9.22 2.48-.08.33-.16.63-.23 1 .33-.81.58-1.97.52-2.48-.04-.32-.16-.85.07-.93.2-.07.4.02.59.63a2.3 2.3 0 0 1-.08 1.61c-.12.3-.27.61-.44.9-.32.56-.63 1.04-.81 1.6l1-1.71.71-1.7c.55.63.44 1.29-.17 2.24-.2.32-.4.68-.45.8l1.16-1.71c.3.77.06 1.94-1.3 2.66l.04.1 1.2-.67c.02.6-.23 1.23-1.23 1.49-.6.18-1.3.23-1.83.47.72.1 1.25-.12 1.81-.28.18-.06.36-.12.56-.17-.02.58-.77.97-1.43 1.1-.57.1-1.06.1-1.39-.13l-.09.22h1.94c-.78.74-1.74.38-2.59.36l1.16.48c-.56.65-1.42.08-1.8-.24l.42.68c-.46.19-.8-.12-1.1-.64l-.05.03z" fill="url(#h)"/><path d="M3.72 5.6c.4-.04 1.2-.06 1.31-.7.16.13.3.18.43.18.16 0 .3-.13.54-.34l.18.4.34-.06c-.08-.42-.33-.53-.6-.63-.2-.07-.36-.15-.5-.28.72-.22.64-.89.8-1.37l-1.02.5.46-.4v-.1c-.52-.07-1.1.2-.91.63l-1.09.1.11.4c-.2-.19-.48-.23-.65-.08-.13.13-.24.4-.09.78h.12c.09-.2.32-.27.5-.27.28 0 .54.16.64.26.13.12.17.23.17.33 0 .18-.14.26-.4.4-.22.11-.3.18-.34.24z" fill="url(#i)"/><path d="M4.12 3.94v-.06c.29-.16.42-.03.5.06-.16.1-.33.1-.5 0zM2.75 5.54l1.65-.46V4.8c-.87.12-1.41.4-1.65.74z" fill="#ff2a2a"/></svg>

<?xml version="1.0" encoding="UTF-8" standalone="no"?>
<svg
   xmlns:dc="http://purl.org/dc/elements/1.1/"
   xmlns:cc="http://creativecommons.org/ns#"
   xmlns:rdf="http://www.w3.org/1999/02/22-rdf-syntax-ns#"
   xmlns:svg="http://www.w3.org/2000/svg"
   xmlns="http://www.w3.org/2000/svg"
   xmlns:xlink="http://www.w3.org/1999/xlink"
   xmlns:sodipodi="http://sodipodi.sourceforge.net/DTD/sodipodi-0.dtd"
   xmlns:inkscape="http://www.inkscape.org/namespaces/inkscape"
   width="48"
   height="48"
   viewBox="0 0 12.7 12.7"
   version="1.1"
   id="svg51"
   sodipodi:docname="bluegriffon.svg"
   inkscape:version="0.92.4 (5da689c313, 2019-01-14)">
  <sodipodi:namedview
     pagecolor="#ffffff"
     bordercolor="#666666"
     borderopacity="1"
     objecttolerance="10"
     gridtolerance="10"
     guidetolerance="10"
     inkscape:pageopacity="0"
     inkscape:pageshadow="2"
     inkscape:window-width="1112"
     inkscape:window-height="480"
     id="namedview53"
     showgrid="false"
     inkscape:zoom="4.9166667"
     inkscape:cx="2.1355932"
     inkscape:cy="24"
     inkscape:window-x="0"
     inkscape:window-y="25"
     inkscape:window-maximized="0"
     inkscape:current-layer="svg51" />
  <metadata
     id="metadata2">
    <rdf:RDF>
      <cc:Work>
        <dc:format>image/svg+xml</dc:format>
        <dc:type
           rdf:resource="http://purl.org/dc/dcmitype/StillImage" />
        <dc:title></dc:title>
      </cc:Work>
    </rdf:RDF>
  </metadata>
  <defs
     id="defs37">
    <linearGradient
       id="f">
      <stop
         offset="0"
         stop-color="#fff"
         id="stop4" />
      <stop
         offset="1"
         stop-color="#2c89a0"
         id="stop6" />
    </linearGradient>
    <linearGradient
       id="e">
      <stop
         offset="0"
         stop-color="#00112b"
         id="stop9" />
      <stop
         offset="1"
         stop-color="#214478"
         id="stop11" />
    </linearGradient>
    <linearGradient
       id="b">
      <stop
         offset="0"
         stop-color="#020000"
         id="stop14" />
      <stop
         offset="1"
         stop-color="#6f918a"
         stop-opacity="0"
         id="stop16" />
    </linearGradient>
    <linearGradient
       id="a">
      <stop
         offset="0"
         stop-color="#162d50"
         id="stop19" />
      <stop
         offset="1"
         stop-color="#2c5aa0"
         id="stop21" />
    </linearGradient>
    <linearGradient
       id="c">
      <stop
         offset="0"
         stop-color="#fff"
         stop-opacity=".18"
         id="stop24" />
      <stop
         offset="1"
         stop-opacity="0"
         id="stop26" />
    </linearGradient>
    <linearGradient
       id="d">
      <stop
         offset="0"
         id="stop29" />
      <stop
         offset="1"
         stop-opacity="0"
         id="stop31" />
    </linearGradient>
    <linearGradient
       xlink:href="#e"
       id="h"
       x1="3.67"
       y1="5.29"
       x2="10.58"
       y2="5.29"
       gradientUnits="userSpaceOnUse" />
    <linearGradient
       xlink:href="#e"
       id="i"
       x1="2.96"
       y1="4.19"
       x2="6.52"
       y2="4.19"
       gradientUnits="userSpaceOnUse" />
    <radialGradient
       xlink:href="#f"
       id="g"
       gradientUnits="userSpaceOnUse"
       gradientTransform="matrix(1.5571,0.0042,-0.00425,1.57695,-3.5,-3.69)"
       cx="6.34"
       cy="6.35"
       fx="6.34"
       fy="6.35"
       r="5.35" />
  </defs>
  <path
     d="M 6.35,0.1 C 4.81,0.1 3.57,0.38 2.66,0.96 A 3.67,3.67 0 0 0 1,4.22 c 0,1.91 1.54,4.47 2.01,5.2 0.54,0.85 1.13,1.61 1.65,2.16 0.68,0.7 1.21,1.03 1.69,1.03 0.48,0 1.01,-0.33 1.69,-1.03 A 15.2,15.2 0 0 0 9.69,9.43 c 0.47,-0.74 2,-3.3 2,-5.21 0,-1.42 -0.57,-2.54 -1.65,-3.25 A 6.75,6.75 0 0 0 6.35,0.1 Z"
     id="path39"
     style="fill:url(#g)"
     inkscape:connector-curvature="0" />
  <path
     d="m 6.35,0.2 -4.86,6.16 4.86,6.17 4.86,-6.17 z m 0,1.55 3.63,4.61 -3.63,4.61 -3.63,-4.6 z"
     id="path41"
     inkscape:connector-curvature="0"
     style="fill:#00aa88" />
  <path
     d="M 6.35,0.1 C 4.81,0.1 3.57,0.38 2.66,0.96 A 3.67,3.67 0 0 0 1,4.22 c 0,1.91 1.54,4.47 2.01,5.2 0.54,0.85 1.13,1.61 1.65,2.16 0.68,0.7 1.21,1.03 1.69,1.03 0.48,0 1.01,-0.33 1.69,-1.03 A 15.2,15.2 0 0 0 9.69,9.43 c 0.47,-0.74 2,-3.3 2,-5.21 0,-1.42 -0.57,-2.54 -1.65,-3.25 A 6.75,6.75 0 0 0 6.35,0.1 Z m 0,0.03 C 6.91,0.15 7.44,0.2 7.9,0.31 a 5.82,5.82 0 0 1 1.6,0.66 3.65,3.65 0 0 1 1.24,1.36 c 0.14,0.27 0.25,0.57 0.32,0.88 A 4.61,4.61 0 0 1 10.92,5.74 C 10.77,6.26 10.56,6.78 10.34,7.26 9.9,8.23 9.39,9.06 9.16,9.43 A 15.2,15.2 0 0 1 7.51,11.58 4.9,4.9 0 0 1 6.59,12.36 0.96,0.96 0 0 1 6.35,12.46 0.96,0.96 0 0 1 6.11,12.36 4.76,4.76 0 0 1 5.19,11.58 14.41,14.41 0 0 1 3.54,9.43 19.2,19.2 0 0 1 2.36,7.26 C 2.14,6.78 1.93,6.26 1.78,5.74 A 4.6,4.6 0 0 1 1.64,3.22 3.73,3.73 0 0 1 2.48,1.58 3.65,3.65 0 0 1 3.93,0.58 6.83,6.83 0 0 1 6.35,0.13 Z"
     id="path43"
     inkscape:connector-curvature="0"
     style="opacity:0.2" />
  <path
     d="M 5,9.82 C 4.12,9.92 3.68,9.27 3.67,8.32 3.66,7.57 4.39,5.2 5.95,5.26 L 6.57,5.28 6.68,4.15 6.2,2.37 C 6.77,2.15 7.04,2.77 7.24,3.02 L 7.3,3 7.1,2.41 C 7.96,2.08 7.75,3.11 7.89,3.74 7.99,3.28 8.22,2.41 7.76,1.57 7.59,1.27 7.51,1 7.68,0.82 7.93,0.54 8.23,0.86 8.38,1.04 9.04,1.74 8.73,2.94 8.6,3.52 8.52,3.85 8.44,4.15 8.37,4.52 8.7,3.71 8.95,2.55 8.89,2.04 8.85,1.72 8.73,1.19 8.96,1.11 9.16,1.04 9.36,1.13 9.55,1.74 A 2.3,2.3 0 0 1 9.47,3.35 C 9.35,3.65 9.2,3.96 9.03,4.25 8.71,4.81 8.4,5.29 8.22,5.85 l 1,-1.71 0.71,-1.7 C 10.48,3.07 10.37,3.73 9.76,4.68 9.56,5 9.36,5.36 9.31,5.48 l 1.16,-1.71 c 0.3,0.77 0.06,1.94 -1.3,2.66 l 0.04,0.1 1.2,-0.67 C 10.43,6.46 10.18,7.09 9.18,7.35 8.58,7.53 7.88,7.58 7.35,7.82 8.07,7.92 8.6,7.7 9.16,7.54 9.34,7.48 9.52,7.42 9.72,7.37 9.7,7.95 8.95,8.34 8.29,8.47 7.72,8.57 7.23,8.57 6.9,8.34 L 6.81,8.56 H 8.75 C 7.97,9.3 7.01,8.94 6.16,8.92 L 7.32,9.4 C 6.76,10.05 5.9,9.48 5.52,9.16 L 5.94,9.84 C 5.48,10.03 5.14,9.72 4.84,9.2 L 4.79,9.23 Z"
     id="path45"
     style="fill:url(#h)"
     inkscape:connector-curvature="0" />
  <path
     d="M 3.72,5.6 C 4.12,5.56 4.92,5.54 5.03,4.9 5.19,5.03 5.33,5.08 5.46,5.08 5.62,5.08 5.76,4.95 6,4.74 L 6.18,5.14 6.52,5.08 C 6.44,4.66 6.19,4.55 5.92,4.45 5.72,4.38 5.56,4.3 5.42,4.17 6.14,3.95 6.06,3.28 6.22,2.8 L 5.2,3.3 5.66,2.9 V 2.8 C 5.14,2.73 4.56,3 4.75,3.43 l -1.09,0.1 0.11,0.4 C 3.57,3.74 3.29,3.7 3.12,3.85 2.99,3.98 2.88,4.25 3.03,4.63 h 0.12 c 0.09,-0.2 0.32,-0.27 0.5,-0.27 0.28,0 0.54,0.16 0.64,0.26 0.13,0.12 0.17,0.23 0.17,0.33 0,0.18 -0.14,0.26 -0.4,0.4 -0.22,0.11 -0.3,0.18 -0.34,0.24 z"
     id="path47"
     style="fill:url(#i)"
     inkscape:connector-curvature="0" />
  <path
     d="M 4.12,3.94 V 3.88 c 0.29,-0.16 0.42,-0.03 0.5,0.06 -0.16,0.1 -0.33,0.1 -0.5,0 z M 2.75,5.54 4.4,5.08 V 4.8 C 3.53,4.92 2.99,5.2 2.75,5.54 Z"
     id="path49"
     inkscape:connector-curvature="0"
     style="fill:#ff2a2a" />
</svg>
